icons/home-gear-fill.svg

<svg xmlns="http://www.w3.org/2000/svg" width="24" height="24" fill="none"><g clip-path="url(#a)"><g><path fill="#121212" d="M20 20C20 20.2653 19.8946 20.5196 19.7071 20.7071C19.5196 20.8947 19.2652 21 19 21H5C4.73478 21 4.48043 20.8947 4.29289 20.7071C4.10536 20.5196 4 20.2653 4 20V11H1L11.327 1.61204C11.5111 1.44452 11.7511 1.35168 12 1.35168C12.2489 1.35168 12.4889 1.44452 12.673 1.61204L23 11H20V20ZM8.592 13.808L7.601 14.38L8.601 16.113L9.594 15.54C9.99236 15.9167 10.4736 16.1945 10.999 16.351V17.496H13.001V16.35C13.5263 16.1938 14.0075 15.9163 14.406 15.54L15.398 16.112L16.4 14.38L15.409 13.808C15.5355 13.2755 15.5355 12.7206 15.409 12.188L16.4 11.615L15.4 9.88204L14.407 10.455C14.008 10.0785 13.526 9.80103 13 9.64504V8.50004H10.998V9.64404C10.4726 9.80061 9.99136 10.0784 9.593 10.455L8.601 9.88204L7.6 11.616L8.591 12.188C8.46446 12.7206 8.46446 13.2755 8.591 13.808H8.592ZM12 14.498C11.803 14.4982 11.6078 14.4595 11.4257 14.3842C11.2436 14.3089 11.0781 14.1985 10.9387 14.0593C10.7993 13.92 10.6886 13.7547 10.6131 13.5727C10.5376 13.3907 10.4986 13.1956 10.4985 12.9985C10.4984 12.8015 10.5371 12.6063 10.6123 12.4242C10.6876 12.2422 10.798 12.0767 10.9373 11.9372C11.0765 11.7978 11.2419 11.6872 11.4239 11.6116C11.6059 11.5361 11.801 11.4972 11.998 11.497C12.3958 11.4968 12.7775 11.6546 13.059 11.9357C13.3404 12.2168 13.4987 12.5982 13.499 12.996C13.4993 13.3939 13.3415 13.7755 13.0604 14.057C12.7793 14.3385 12.3978 14.4968 12 14.497V14.498Z"/></g></g><defs><clipPath id="a"><rect width="24" height="24" fill="white"/></clipPath></defs></svg>

<svg width="24" height="24" fill="none" xmlns="http://www.w3.org/2000/svg"><g clip-path="url(#a)"><path d="M20 20a1 1 0 0 1-1 1H5a1 1 0 0 1-1-1v-9H1l10.327-9.388a1 1 0 0 1 1.346 0L23 11h-3v9ZM8.592 13.808l-.991.572 1 1.733.993-.573c.398.377.88.655 1.405.811v1.145h2.002V16.35a3.5 3.5 0 0 0 1.405-.81l.992.572L16.4 14.38l-.991-.572a3.505 3.505 0 0 0 0-1.62l.991-.573-1-1.733-.993.573A3.5 3.5 0 0 0 13 9.645V8.5h-2.002v1.144a3.5 3.5 0 0 0-1.405.811l-.992-.573L7.6 11.616l.991.572a3.504 3.504 0 0 0 0 1.62h.001Zm3.408.69a1.5 1.5 0 0 1-.576-2.886 1.502 1.502 0 0 1 1.635.324A1.5 1.5 0 0 1 12 14.497v.001Z" /></g><defs><clipPath id="a"><path fill="#fff" d="M0 0h24v24H0z"/></clipPath></defs></svg>
